packages/sources/icons/src/vitamix/suitcase-line.svg

<svg width="16" height="16" viewBox="0 0 16 16" fill="none" xmlns="http://www.w3.org/2000/svg">
<path fill-rule="evenodd" clip-rule="evenodd" d="M10 2C10.368 2 10.6667 2.29867 10.6667 2.66667V4H14C14.368 4 14.6667 4.29867 14.6667 4.66667V13.3333C14.6667 13.7013 14.368 14 14 14H1.99999C1.63199 14 1.33333 13.7013 1.33333 13.3333V4.66667C1.33333 4.29867 1.63199 4 1.99999 4H5.33333V2.66667C5.33333 2.29867 5.632 2 6 2H10ZM10.6667 5.33333H5.33333V12.6667H10.6667V5.33333ZM2.66666 12.6667V5.33333H3.99999V12.6667H2.66666ZM9.33333 3.33333H6.66666V4H9.33333V3.33333ZM12 12.6667V5.33333H13.3333V12.6667H12Z" fill="#001018"/>
</svg>

<svg width="16" height="16" fill="none" xmlns="http://www.w3.org/2000/svg"><path fill-rule="evenodd" clip-rule="evenodd" d="M10 2c.368 0 .667.299.667.667V4H14c.368 0 .667.299.667.667v8.666A.667.667 0 0 1 14 14H2a.667.667 0 0 1-.667-.667V4.667C1.333 4.299 1.632 4 2 4h3.333V2.667C5.333 2.299 5.632 2 6 2h4zm.667 3.333H5.333v7.334h5.334V5.333zm-8 7.334V5.333H4v7.334H2.667zm6.666-9.334H6.667V4h2.666v-.667zM12 12.667V5.333h1.333v7.334H12z" fill="#001018"/></svg>
